!!!COM:	la Rue, Pierre de
!!!CDT:	~1452///-1518/11/20
!!!OPR:	Missa Ave sanctissima Maria
!!!ONM:	2
!!!OTL:	Gloria
!!!AGN:	Mass; Gloria
!!!SCT:	Rue1005b
!!!SCA:	Rue1005b
!!!voices:	6
!!!voices-OPR:	6(-5)
**kern	**kern	**kern	**kern	**kern	**kern
*staff6	*staff5	*staff4	*staff3	*staff2	*staff1
*Ivox	*Ivox	*Ivox	*Ivox	*Ivox	*Ivox
*I"Bassus2	*I"Bassus1	*I"Contra2	*I"Contra1	*I"Discantus2	*I"Discantus1
*I'B2	*I'B1	*I'C2	*I'C1	*I'D2	*I'D1
*>[A,B,C]	*>[A,B,C]	*>[A,B,C]	*>[A,B,C]	*>[A,B,C]	*>[A,B,C]
*>A	*>A	*>A	*>A	*>A	*>A
*clefF4	*clefF4	*clefGv2	*clefGv2	*clefG2	*clefG2
*k[]	*k[]	*k[]	*k[]	*k[]	*k[]
*M2/1	*M2/1	*M2/1	*M2/1	*M2/1	*M2/1
*met(C2)	*met(C2)	*met(C2)	*met(C2)	*met(C2)	*met(C2)
=1-	=1-	=1-	=1-	=1-	=1-
!	!	!	!	!	!LO:TX:X=-40:Z=8:t=6-ex-3 canon at the upper fourth (B2-->B1, C2-->C1, D2-->D1)
!!section: Et in terra pax
!!!OMD: Et in terra pax
0G	0r	1r	0r	0g	0r
.	.	[1G	.	.	.
=2.	=2.	=2.	=2.	=2.	=2.
1E	0r	2G/]	0r	1g	0r
.	.	2G/	.	.	.
[1C	.	2G/	.	[1e	.
.	.	2G/	.	.	.
=3	=3	=3	=3	=3	=3
2C/]	0r	1G	0r	2e/]	0r
2D\	.	.	.	4d/	.
.	.	.	.	4c/	.
1E	.	2r	.	1B	.
.	.	2G/	.	.	.
=4.	=4.	=4.	=4.	=4.	=4.
[0AA	0c	2E/	1r	2.c/	0cc
.	.	2F/	.	.	.
.	.	.	.	4d/	.
.	.	2E/	[1c	2e/	.
.	.	2c\	.	2f/	.
=5	=5	=5	=5	=5	=5
0AA_	1A	2c\	2c\]	2e/	1cc
.	.	2.A/	2c\	1f	.
.	[1F	.	2c\	.	[1a
.	.	4G/	.	.	.
.	.	[2F/	2c\	4e/	.
.	.	.	.	4d/	.
=6.	=6.	=6.	=6.	=6.	=6.
0AA]	2F\]	2F/]	1c	4c/	2a/]
.	.	.	.	4A/	.
.	2G\	4E/	.	1d	4g/
.	.	4D/	.	.	4f/
.	1A	1E	2r	.	1e
.	.	.	2c\	2c#i/	.
=7	=7	=7	=7	=7	=7
0r	[0D	0D	2A/	0d	2.f/
.	.	.	2B-i\	.	.
.	.	.	.	.	4g/
.	.	.	2A/	.	2a/
.	.	.	2f\	.	2b-i\
=8.	=8.	=8.	=8.	=8.	=8.
0r	0D_	0r	2f\	0r	2a/
.	.	.	2.d\	.	1b-i
.	.	.	4c\	.	.
.	.	.	[2B-i\	.	4a/
.	.	.	.	.	4g/
=9	=9	=9	=9	=9	=9
1r	0D]	0r	2B-\]	1d	4f/
.	.	.	.	.	4d/
.	.	.	4A/	.	1g
.	.	.	4G/	.	.
1D	.	.	1A	2d/	.
.	.	.	.	2d/	2f#i/
=10.	=10.	=10.	=10.	=10.	=10.
2E\	0r	0r	0G	2c/	0g
2E\	.	.	.	1e	.
1C	.	.	.	.	.
.	.	.	.	4d/	.
.	.	.	.	4c/	.
=11	=11	=11	=11	=11	=11
2r	0r	0r	0r	2B/	0r
2D\	.	.	.	2B/	.
2E\	.	.	.	2c/	.
[2G\	.	.	.	[2e/	.
=12.	=12.	=12.	=12.	=12.	=12.
4G\]	1r	0r	0r	2e/]	1g
4F\	.	.	.	.	.
4E\	.	.	.	2.d/	.
4D\	.	.	.	.	.
1E	1G	.	.	.	2g/
.	.	.	.	4c#i/	.
.	.	.	.	2c#i/	2g/
=13	=13	=13	=13	=13	=13
0D	2A\	0r	0r	0d	2f/
.	2A\	.	.	.	1a
.	1F	.	.	.	.
.	.	.	.	.	4g/
.	.	.	.	.	4f/
=14.	=14.	=14.	=14.	=14.	=14.
0r	2r	0r	0r	0r	2e/
.	2G\	.	.	.	2e/
.	2A\	.	.	.	2f/
.	[2c\	.	.	.	[2a/
=15	=15	=15	=15	=15	=15
1r	4c\]	0r	0r	0r	2a/]
.	4B\	.	.	.	.
.	4A\	.	.	.	2.g/
.	4G\	.	.	.	.
2D\	1A	.	.	.	.
.	.	.	.	.	4f#i/
2D\	.	.	.	.	2f#i/
=16.	=16.	=16.	=16.	=16.	=16.
2E\	0G	1r	0r	0r	0g
2E\	.	.	.	.	.
1C	.	2G/	.	.	.
.	.	2G/	.	.	.
=17	=17	=17	=17	=17	=17
2r	0r	2A/	0r	0r	0r
1D	.	2A/	.	.	.
.	.	1F	.	.	.
2D\	.	.	.	.	.
=18.	=18.	=18.	=18.	=18.	=18.
2.E\	1r	2r	0r	0r	0r
.	.	2.G/	.	.	.
4D\	.	.	.	.	.
2C/	2G\	.	.	.	.
.	.	4A/	.	.	.
2BB/	2G\	2B\	.	.	.
=19	=19	=19	=19	=19	=19
1AA	2A\	1c	1r	0r	0r
.	2A\	.	.	.	.
1AA	1F	1A	2c\	.	.
.	.	.	2c\	.	.
=20.	=20.	=20.	=20.	=20.	=20.
0GG	2r	1B	2d\	2.g/	0r
.	1G	.	2d\	.	.
.	.	.	.	4g/	.
.	.	1G	1B	2g/	.
.	2G\	.	.	2g/	.
=21	=21	=21	=21	=21	=21
0r	2.A\	0r	2r	2c/	0r
.	.	.	2.c\	2.e/	.
.	4G\	.	.	.	.
.	2F\	.	.	.	.
.	.	.	4d\	4d/	.
.	2E\	.	2e\	[2c/	.
=22.	=22.	=22.	=22.	=22.	=22.
0r	1D	0r	1f	2c/]	0r
.	.	.	.	4B/	.
.	.	.	.	4A/	.
.	1D	.	1d	2B/	.
.	.	.	.	4c/	.
.	.	.	.	4B/	.
=23	=23	=23	=23	=23	=23
0r	0C	0r	1e	2c/	2.cc\
.	.	.	.	2d/	.
.	.	.	.	.	4cc\
.	.	.	1c	2e/	2cc\
.	.	.	.	2e/	2cc\
=24.	=24.	=24.	=24.	=24.	=24.
0r	0r	0r	0r	2.f/	2f/
.	.	.	.	.	2.a/
.	.	.	.	4e/	.
.	.	.	.	2c/	.
.	.	.	.	.	4g/
.	.	.	.	[2d/	[2f/
=25	=25	=25	=25	=25	=25
0r	0r	0r	0r	2d/]	2f/]
.	.	.	.	4c/	4e/
.	.	.	.	4B/	4d/
.	.	.	.	2c/	2e/
.	.	.	.	4d/	4f/
.	.	.	.	4c/	4e/
=26.	=26.	=26.	=26.	=26.	=26.
0r	0r	2r	0r	2d/	2f/
.	.	1G	.	2B/	2g/
.	.	.	.	1A	2a/
.	.	2F/	.	.	2a/
=27	=27	=27	=27	=27	=27
0r	0r	2.G/	0r	1G	2.b-i\
.	.	4A/	.	.	4a/
.	.	4B-i\	.	1r	2f/
.	.	4A/	.	.	.
.	.	[2B-i\	.	.	[2g/
=28.	=28.	=28.	=28.	=28.	=28.
0r	0r	2B-\]	0r	0r	2g/]
.	.	4A/	.	.	4f/
.	.	4G/	.	.	4e/
.	.	1A	.	.	2f/
.	.	.	.	.	4g/
.	.	.	.	.	4f/
=29	=29	=29	=29	=29	=29
1GG	0r	1G	2r	0r	2g/
.	.	.	1c	.	2e/
1GG	.	[1G	.	.	1d
.	.	.	2B\	.	.
=30.	=30.	=30.	=30.	=30.	=30.
1C	0r	2G/]	2.c\	0r	1c
.	.	2G/	.	.	.
.	.	.	4d\	.	.
[1C	.	2.E/	4e\	.	1r
.	.	.	4d\	.	.
.	.	.	[2e\	.	.
.	.	4F/	.	.	.
=31	=31	=31	=31	=31	=31
2C/]	0r	2G/	2e\]	0r	0r
4BB/	.	1A	4d\	.	.
4AA/	.	.	4c\	.	.
1BB	.	.	1d	.	.
.	.	2G#i/	.	.	.
=32.	=32.	=32.	=32.	=32.	=32.
[0AA	1C	[0A	1c	0r	0r
.	1C	.	[1c	.	.
=33	=33	=33	=33	=33	=33
0AA]	1F	0A]	2c\]	0r	0r
.	.	.	2c\	.	.
.	[1F	.	2.A/	.	.
.	.	.	4B\	.	.
=34.	=34.	=34.	=34.	=34.	=34.
0r	2F\]	1r	2c\	1r	0r
.	4E\	.	1d	.	.
.	4D\	.	.	.	.
.	1E	1G	.	1g	.
.	.	.	2c#i\	.	.
=35	=35	=35	=35	=35	=35
2r	[0D	1A	[0d	2f/	0r
2D\	.	.	.	2a/	.
2D\	.	2A/	.	2a/	.
2GG/	.	2B\	.	2g/	.
=36.	=36.	=36.	=36.	=36.	=36.
2D\	0D]	2A/	0d]	2f/	0r
2.GG/	.	1B	.	1g	.
4AA/	.	.	.	.	.
4BB/	.	4A/	.	4f/	.
4C/	.	4G/	.	4e/	.
=37	=37	=37	=37	=37	=37
2D\	0r	2F/	1r	2d/	1r
2GG/	.	2.G/	.	2B/	.
1AA	.	.	1c	1A	1cc
.	.	4F#i/	.	.	.
.	.	4F#i/	.	.	.
.	.	4E/	.	.	.
=38.	=38.	=38.	=38.	=38.	=38.
1GG	2r	0G	1d	2.B/	2b\
.	2G\	.	.	.	2dd\
.	.	.	.	4G/	.
1r	2G\	.	2d\	1G	2dd\
.	2C/	.	2e\	.	2cc\
=39	=39	=39	=39	=39	=39
0r	2G\	0r	2d\	0r	2b\
.	2.C/	.	1e	.	1cc
.	4D\	.	.	.	.
.	4E\	.	4d\	.	4b\
.	4F\	.	4c\	.	4a/
=40.	=40.	=40.	=40.	=40.	=40.
1r	2G\	1.G	2B\	1r	2g/
.	2C/	.	2.c\	.	2e/
1GG	1D	.	.	1g	1d
.	.	.	4B\	.	.
.	.	2G/	4B\	.	.
.	.	.	4A/	.	.
=41	=41	=41	=41	=41	=41
1C	1C	2C/	0c	1e	2.e/
.	.	1c	.	.	.
.	.	.	.	.	4c/
2.C/	1r	.	.	2.e/	1c
.	.	2c\	.	.	.
4D\	.	.	.	4f/	.
=42.	=42.	=42.	=42.	=42.	=42.
2E\	0r	2c\	0r	2g/	0r
2AA/	.	2A/	.	1a	.
1E	.	1B	.	.	.
.	.	.	.	2g#i/	.
=43	=43	=43	=43	=43	=43
0AA	1r	2A/	1.c	1a	1r
.	.	2F/	.	.	.
.	1C	1E	.	[1a	1cc
.	.	.	2c\	.	.
=44.	=44.	=44.	=44.	=44.	=44.
0r	1F	0D	2F/	1a]	1a
.	.	.	1f	.	.
.	2.F\	.	.	1a	2.a/
.	.	.	2f\	.	.
.	4G\	.	.	.	4b\
=45	=45	=45	=45	=45	=45
0r	2A\	0r	2f\	2a/	2cc\
.	2D\	.	2d\	2.a/	1dd
.	1A	.	1e	.	.
.	.	.	.	4g/	.
.	.	.	.	4f/	2cc#i\
.	.	.	.	4e/	.
=46.	=46.	=46.	=46.	=46.	=46.
0D	0D	1r	2d\	2f/	1dd
.	.	.	2B\	1g	.
.	.	[1d	1A	.	[1dd
.	.	.	.	2f#i/	.
=47	=47	=47	=47	=47	=47
[0GG	0r	2d\]	0G	1g	1dd]
.	.	2c\	.	.	.
.	.	2.B\	.	1g	1dd
.	.	4A/	.	.	.
=48.	=48.	=48.	=48.	=48.	=48.
0GG]	0r	0G	0r	1.g	2dd\
.	.	.	.	.	2.dd\
.	.	.	.	.	4cc\
.	.	.	.	4f/	4b\
.	.	.	.	4e/	4a/
=49	=49	=49	=49	=49	=49
0GG	0G	0G	1r	2.d/	2b\
.	.	.	.	.	1cc
.	.	.	.	4c/	.
.	.	.	[1g	1d	.
.	.	.	.	.	2b\
=50.	=50.	=50.	=50.	=50.	=50.
[0AA	[0C	[0E	2g\]	0c	1cc
.	.	.	2f\	.	.
.	.	.	2.e\	.	1cc
.	.	.	4d\	.	.
=51	=51	=51	=51	=51	=51
0AA]	0C]	0E]	0c	0r	1.cc
.	.	.	.	.	4b\
.	.	.	.	.	4a/
=52.	=52.	=52.	=52.	=52.	=52.
0r	0C	0r	0c	0r	2.g/
.	.	.	.	.	4f/
.	.	.	.	.	1g
=53	=53	=53	=53	=53	=53
1r	[0D	0r	[0A	0r	0f
1A	.	.	.	.	.
=54.	=54.	=54.	=54.	=54.	=54.
2.F\	0D]	1r	0A]	1a	0r
4G\	.	.	.	.	.
2A\	.	1A	.	2.f/	.
2A\	.	.	.	.	.
.	.	.	.	4g/	.
=55	=55	=55	=55	=55	=55
2D\	0r	1F	0r	2a/	0r
2F\	.	.	.	2a/	.
1E	.	1G	.	2g/	.
.	.	.	.	2e/	.
=56.	=56.	=56.	=56.	=56.	=56.
1D	1r	2A/	0r	2f/	0r
.	.	2B\	.	1g	.
1D	1d	1A	.	.	.
.	.	.	.	2f#i/	.
=57	=57	=57	=57	=57	=57
0GG	2.B\	0G	1r	0g	1dd
.	4c\	.	.	.	.
.	2d\	.	1d	.	2.b\
.	2d\	.	.	.	.
.	.	.	.	.	4cc\
=58.	=58.	=58.	=58.	=58.	=58.
0r	2G\	0r	1B	0r	2dd\
.	2B\	.	.	.	2dd\
.	1A	.	1c	.	2cc\
.	.	.	.	.	2a/
=59	=59	=59	=59	=59	=59
1GG	1G	1r	2d\	2r	2b\
.	.	.	2e\	2g/	1cc
1GG	1G	2r	1d	2.g/	.
.	.	2G/	.	.	2b\
.	.	.	.	4f/	.
=60.	=60.	=60.	=60.	=60.	=60.
1.C	0C	1G	0c	4e/	0cc
.	.	.	.	4d/	.
.	.	.	.	1e	.
.	.	1c	.	.	.
4BB/	.	.	.	4d/	.
4AA/	.	.	.	4c/	.
=61	=61	=61	=61	=61	=61
2GG/	0r	2B\	0r	4d/	0r
.	.	.	.	4c/	.
2AA/	.	2.A/	.	4B/	.
.	.	.	.	4A/	.
1E	.	.	.	1B	.
.	.	4G#i/	.	.	.
.	.	2G#i/	.	.	.
=62.	=62.	=62.	=62.	=62.	=62.
0AA	1C	0A	1r	0A	2r
.	.	.	.	.	2cc\
.	1C	.	2r	.	2.cc\
.	.	.	2c\	.	.
.	.	.	.	.	4b\
=63	=63	=63	=63	=63	=63
0r	1.F	0r	1c	0r	4a/
.	.	.	.	.	4g/
.	.	.	.	.	1a
.	.	.	1f	.	.
.	4E\	.	.	.	4g/
.	4D\	.	.	.	4f/
=64.	=64.	=64.	=64.	=64.	=64.
0r	2C/	0r	2e\	0r	4g/
.	.	.	.	.	4f/
.	2D\	.	2.d\	.	4e/
.	.	.	.	.	4d/
.	1A	.	.	.	1e
.	.	.	4c#i\	.	.
.	.	.	2c#i\	.	.
=65	=65	=65	=65	=65	=65
1A	0D	2r	0d	2r	0d
.	.	2.D/	.	2a/	.
2A\	.	.	.	2.a/	.
.	.	4E/	.	.	.
[2F\	.	4F/	.	.	.
.	.	4G/	.	4g/	.
=66.	=66.	=66.	=66.	=66.	=66.
2F\]	0r	2A/	0r	4f/	0r
.	.	.	.	4e/	.
1D	.	2A/	.	1f	.
.	.	2F/	.	.	.
4C/	.	[2A/	.	4e/	.
4BB/	.	.	.	4d/	.
=67	=67	=67	=67	=67	=67
0AA	0r	4A/]	0r	2c/	0r
.	.	4G/	.	.	.
.	.	2F/	.	1d	.
.	.	1E	.	.	.
.	.	.	.	2c#i/	.
=68.	=68.	=68.	=68.	=68.	=68.
2D\	1d	[0D	2r	[0d	2r
2GG/	.	.	2.G/	.	2dd\
2GG/	2d\	.	.	.	2.dd\
.	.	.	4A/	.	.
[2GG/	[2B\	.	4B\	.	.
.	.	.	4c\	.	4cc\
=69	=69	=69	=69	=69	=69
2GG/]	2B\]	0D]	2d\	0d]	4b\
.	.	.	.	.	4a/
2.GG/	1G	.	2d\	.	1b
.	.	.	2B\	.	.
4AA/	.	.	.	.	.
4BB/	4F\	.	[2d\	.	4a/
4C/	4E\	.	.	.	4g/
=70.	=70.	=70.	=70.	=70.	=70.
2D\	[0Dl	1r	4d\]	[0dl	2f/
.	.	.	4c\	.	.
2GG/	.	.	2B\	.	1g
1D	.	1d	1A	.	.
.	.	.	.	.	2f#i/
=71	=71	=71	=71	=71	=71
0GG	0D_	[0Bl	[0Gl	0d_	[0g
=72.	=72.	=72.	=72.	=72.	=72.
[0GGl	0D_	0B_	0G_	0d_	0g]
=73	=73	=73	=73	=73	=73
0GG]	0D]	0B]	0G]	0d]	0gl
!!LO:LB:i:g=z
=74||	=74||	=74||	=74||	=74||	=74||
*>B	*>B	*>B	*>B	*>B	*>B
*clefF4	*clefF4	*clefGv2	*clefGv2	*clefG2	*clefG2
*k[]	*k[]	*k[]	*k[]	*k[]	*k[]
*M2/1	*M2/1	*M2/1	*M2/1	*M2/1	*M2/1
*met(C)	*met(C)	*met(C)	*met(C)	*met(C)	*met(C)
!!section: Qui tollis
!!!OMD: Qui tollis
!LO:TX:X=-40:Z=8:t=Canon at the upper fourth (two breves)	!	!	!	!	!
1G	0r	0r	0r	0r	0r
2.E\	.	.	.	.	.
4F\	.	.	.	.	.
=75	=75	=75	=75	=75	=75
2G\	0r	0r	0r	0r	0r
1A	.	.	.	.	.
2G\	.	.	.	.	.
=76	=76	=76	=76	=76	=76
2A\	1c	0r	0r	0r	0r
2A\	.	.	.	.	.
2F\	2.A\	.	.	.	.
[2A\	.	.	.	.	.
.	4B\	.	.	.	.
=77	=77	=77	=77	=77	=77
4A\]	2c\	0r	0r	0r	0r
4G\	.	.	.	.	.
2F\	1d	.	.	.	.
1E	.	.	.	.	.
.	2c\	.	.	.	.
=78	=78	=78	=78	=78	=78
[0D	2d\	0r	0r	0r	0r
.	2d\	.	.	.	.
.	2B\	.	.	.	.
.	[2d\	.	.	.	.
=79	=79	=79	=79	=79	=79
0D]	4d\]	0r	0r	0r	0r
.	4c\	.	.	.	.
.	2B\	.	.	.	.
.	1A	.	.	.	.
=80	=80	=80	=80	=80	=80
1r	[0G	0r	0r	0r	0r
1G	.	.	.	.	.
=81	=81	=81	=81	=81	=81
2.G\	0G]	0r	0r	0r	0r
4F\	.	.	.	.	.
2E\	.	.	.	.	.
2E\	.	.	.	.	.
=82	=82	=82	=82	=82	=82
2.F\	1r	0r	0r	0r	0r
4G\	.	.	.	.	.
4A\	1c	.	.	.	.
4B-i\	.	.	.	.	.
[2A\	.	.	.	.	.
=83	=83	=83	=83	=83	=83
2A\]	2.c\	0r	0r	0r	0r
2.G\	.	.	.	.	.
.	4B\	.	.	.	.
.	2A\	.	.	.	.
4F\	.	.	.	.	.
2F\	2A\	.	.	.	.
=84	=84	=84	=84	=84	=84
1.G	2.B\	0r	0r	0r	0r
.	4c\	.	.	.	.
.	4d\	.	.	.	.
.	4e\	.	.	.	.
4F\	[2d\	.	.	.	.
4E\	.	.	.	.	.
=85	=85	=85	=85	=85	=85
4F\	2d\]	0r	0r	0r	0r
4E\	.	.	.	.	.
4D\	2.c\	.	.	.	.
4C/	.	.	.	.	.
1D	.	.	.	.	.
.	4B\	.	.	.	.
.	2B\	.	.	.	.
=86	=86	=86	=86	=86	=86
0C	1.c	0r	0r	0r	0r
.	4B\	.	.	.	.
.	4A\	.	.	.	.
=87	=87	=87	=87	=87	=87
1r	4B\	0r	0r	0r	0r
.	4A\	.	.	.	.
.	4G\	.	.	.	.
.	4F\	.	.	.	.
1C	1G	.	.	.	.
=88	=88	=88	=88	=88	=88
1D	0F	0r	0r	0r	0r
1F	.	.	.	.	.
=89	=89	=89	=89	=89	=89
1E	1r	0r	0r	0r	0r
1D	1F	.	.	.	.
=90	=90	=90	=90	=90	=90
2.E\	1G	0r	0r	0r	0r
4F\	.	.	.	.	.
2G\	1B-i	.	.	.	.
2E\	.	.	.	.	.
=91	=91	=91	=91	=91	=91
1F	1A	0r	0r	0r	0r
1E	1G	.	.	.	.
=92	=92	=92	=92	=92	=92
2r	2.A\	0r	0r	0r	0r
2A\	.	.	.	.	.
.	4B\	.	.	.	.
2A\	2c\	.	.	.	.
[2A\	2A\	.	.	.	.
=93	=93	=93	=93	=93	=93
2A\]	1B	0r	0r	0r	0r
2G\	.	.	.	.	.
2F\	1A	.	.	.	.
[2A\	.	.	.	.	.
=94	=94	=94	=94	=94	=94
4A\]	2r	0r	0r	0r	0r
4G\	.	.	.	.	.
4F\	2d\	.	.	.	.
4E\	.	.	.	.	.
2D\	2d\	.	.	.	.
2F\	[2d\	.	.	.	.
=95	=95	=95	=95	=95	=95
1E	2d\]	0r	0r	0r	0r
.	2c\	.	.	.	.
1D	2B\	.	.	.	.
.	[2d\	.	.	.	.
=96	=96	=96	=96	=96	=96
2r	4d\]	0r	0r	0r	0r
.	4c\	.	.	.	.
2.G\	4B\	.	.	.	.
.	4A\	.	.	.	.
.	2G\	.	.	.	.
4F\	.	.	.	.	.
4E\	2B\	.	.	.	.
4D\	.	.	.	.	.
=97	=97	=97	=97	=97	=97
2C/	1A	0r	0r	0r	0r
2AA/	.	.	.	.	.
1BB	1G	.	.	.	.
=98	=98	=98	=98	=98	=98
2.AA/	2r	0r	0r	0r	0r
.	2.c\	.	.	.	.
4BB/	.	.	.	.	.
4C/	.	.	.	.	.
4D\	4B\	.	.	.	.
[2E\	4A\	.	.	.	.
.	4G\	.	.	.	.
=99	=99	=99	=99	=99	=99
4E\]	2F\	0r	0r	0r	0r
4D\	.	.	.	.	.
1D	2D\	.	.	.	.
.	1E	.	.	.	.
2C#i/	.	.	.	.	.
=100	=100	=100	=100	=100	=100
1D	2.D\	0r	0r	0r	0r
.	4E\	.	.	.	.
2BB/	4F\	.	.	.	.
.	4G\	.	.	.	.
[2C/	[2A\	.	.	.	.
=101	=101	=101	=101	=101	=101
4C/]	4A\]	0r	0r	0r	0r
4BB/	4G\	.	.	.	.
4AA/	1G	.	.	.	.
4GG/	.	.	.	.	.
1AA	.	.	.	.	.
.	2F#i\	.	.	.	.
=102	=102	=102	=102	=102	=102
0GGl	0Gl	0r	0r	0r	0r
!!LO:LB:i:g=z
=103||	=103||	=103||	=103||	=103||	=103||
*>C	*>C	*>C	*>C	*>C	*>C
*clefF4	*clefF4	*clefGv2	*clefGv2	*clefG2	*clefG2
*k[]	*k[]	*k[]	*k[]	*k[]	*k[]
*M2/1	*M2/1	*M2/1	*M2/1	*M2/1	*M2/1
*met(C)	*met(C)	*met(C)	*met(C)	*met(C)	*met(C)
!!section: Qui sedes ad dexteram Patris
!!!OMD: Qui sedes ad dexteram Patris
!	!	!	!	!	!LO:TX:X=-40:Z=8:t=6-ex-3 canon at the upper fourth (B2-->B1, C2-->C1, D2-->D1)
2.GG/	0r	0G	0r	1g	0r
4AA/	.	.	.	.	.
2BB/	.	.	.	2.g/	.
[2C/	.	.	.	.	.
.	.	.	.	4f/	.
=104	=104	=104	=104	=104	=104
2C/]	0r	0G	0r	2e/	0r
4BB/	.	.	.	4d/	.
4AA/	.	.	.	4c/	.
1E	.	.	.	1B	.
=105	=105	=105	=105	=105	=105
[0AA	2.C/	[0A	0c	1A	1cc
.	4D\	.	.	.	.
.	2E\	.	.	2r	2.cc\
.	[2F\	.	.	2A/	.
.	.	.	.	.	4b\
=106	=106	=106	=106	=106	=106
0AA]	2F\]	0A]	0c	2c/	2a/
.	4E\	.	.	2d/	4g/
.	4D\	.	.	.	4f/
.	1A	.	.	1e	1e
=107	=107	=107	=107	=107	=107
0r	[0D	1A	[0d	1.f	1d
.	.	2B\	.	.	2r
.	.	[2A/	.	2d/	2d/
=108	=108	=108	=108	=108	=108
1r	0D]	2A/]	0d]	0d	2f/
.	.	2.G/	.	.	2g/
1D	.	.	.	.	1a
.	.	4F#i/	.	.	.
.	.	2F#i/	.	.	.
=109	=109	=109	=109	=109	=109
1GG	0r	[0G	1d	2r	1.b-i
.	.	.	.	2d/	.
1GG	.	.	2e\	2g/	.
.	.	.	[2d\	2g/	2g/
=110	=110	=110	=110	=110	=110
1C	1r	0G]	2d\]	2e/	0g
.	.	.	2.c\	2.g/	.
1GG	1G	.	.	.	.
.	.	.	4B\	4f/	.
.	.	.	2B\	4e/	.
.	.	.	.	4d/	.
=111	=111	=111	=111	=111	=111
0C	1C	0r	[0c	2c/	2r
.	.	.	.	2e/	2g/
.	1C	.	.	2e/	2cc\
.	.	.	.	2e/	2cc\
=112	=112	=112	=112	=112	=112
0r	1F	0r	0c]	1f	2a/
.	.	.	.	.	2.cc\
.	1C	.	.	1e	.
.	.	.	.	.	4b\
.	.	.	.	.	4a/
.	.	.	.	.	4g/
=113	=113	=113	=113	=113	=113
1.D	0F	1.d	0r	2.d/	2f/
.	.	.	.	.	2a/
.	.	.	.	4e/	.
.	.	.	.	4f/	2a/
.	.	.	.	4g/	.
2D\	.	2d\	.	[2a/	2a/
=114	=114	=114	=114	=114	=114
2D\	0r	2d\	0r	2a/]	1b-i
2D\	.	2d\	.	2.g/	.
1D	.	1A	.	.	1a
.	.	.	.	4f#i/	.
.	.	.	.	2f#i/	.
=115	=115	=115	=115	=115	=115
[0GG	1.G	0B	1.g	0g	2.g/
.	.	.	.	.	4a/
.	.	.	.	.	4b\
.	.	.	.	.	4cc\
.	2G\	.	2g\	.	[2dd\
=116	=116	=116	=116	=116	=116
0GG]	2G\	0r	2g\	0r	2dd\]
.	2G\	.	2g\	.	2.cc\
.	1G	.	1d	.	.
.	.	.	.	.	4b\
.	.	.	.	.	2b\
=117	=117	=117	=117	=117	=117
0r	[0C	3G/V	0e	1r	0cc
.	.	3G/	.	.	.
.	.	3G/Z	.	.	.
.	.	3.E/V	.	3g/V	.
.	.	.	.	3g/	.
.	.	6F/	.	.	.
.	.	3G/Z	.	3g/Z	.
=118	=118	=118	=118	=118	=118
3C/V	0C]	3%2AV	0r	3.e/V	0r
3C/	.	.	.	.	.
.	.	.	.	6f/	.
3C/Z	.	3G/Z	.	3g/Z	.
3%2AAV	.	3F/V	.	3%2aV	.
.	.	3%2EZ	.	.	.
3C/Z	.	.	.	3g/Z	.
=119	=119	=119	=119	=119	=119
3C/V	0r	1G	3c\V	3e/V	1r
3%2FFZ	.	.	3c\	3%2fZ	.
.	.	.	3c\Z	.	.
1C	.	1r	3.A/V	1e	3cc\V
.	.	.	.	.	3cc\
.	.	.	6B\	.	.
.	.	.	3c\Z	.	3cc\Z
=120	=120	=120	=120	=120	=120
0r	3F\V	0r	3%2dV	0r	3.a/V
.	3F\	.	.	.	.
.	.	.	.	.	6b\
.	3F\Z	.	3c\Z	.	3cc\Z
.	3%2DV	.	3B\V	.	3%2ddV
.	.	.	3%2AZ	.	.
.	3F\Z	.	.	.	3cc\Z
=121	=121	=121	=121	=121	=121
0r	3F\V	1r	1d	0r	3a/V
.	3%2BB-iZ	.	.	.	3%2b-iZ
.	1F	3A/V	1r	.	1a
.	.	3A/	.	.	.
.	.	3A/Z	.	.	.
=122	=122	=122	=122	=122	=122
1r	0r	3%2DV	0r	3a/V	0r
.	.	.	.	3a/	.
.	.	3D/Z	.	3a/Z	.
3D\V	.	3.F/V	.	3.d/V	.
3D\	.	.	.	.	.
.	.	6G/	.	6e/	.
3D\Z	.	3A/Z	.	3f/Z	.
=123	=123	=123	=123	=123	=123
3GG/V	0r	3B-i\V	1r	3%2gV	0r
3%2DZ	.	3%2AZ	.	.	.
.	.	.	.	3f#i/Z	.
1GG	.	1G	3d\V	1g	.
.	.	.	3d\	.	.
.	.	.	3d\Z	.	.
=124	=124	=124	=124	=124	=124
0r	1r	0r	3%2GV	0r	3dd\V
.	.	.	.	.	3dd\
.	.	.	3G/Z	.	3dd\Z
.	3G\V	.	3.B\V	.	3.g/V
.	3G\	.	.	.	.
.	.	.	6c\	.	6a/
.	3G\Z	.	3d\Z	.	3b\Z
=125	=125	=125	=125	=125	=125
0r	3C/V	3G/V	3e\V	1r	3%2ccV
.	3%2GZ	3G/	3%2dZ	.	.
.	.	3G/Z	.	.	3b\Z
.	1C	3.E/V	1c	3g/V	1cc
.	.	.	.	3g/	.
.	.	6F/	.	.	.
.	.	3G/Z	.	3g/Z	.
=126	=126	=126	=126	=126	=126
3.C/V	0r	3%2AV	0r	3.e/V	0r
6D\	.	.	.	6f/	.
3E\Z	.	3G/Z	.	3g/Z	.
3%2AAV	.	3F/V	.	3%2aV	.
.	.	3%2EZ	.	.	.
[3C/Z	.	.	.	[3e/Z	.
=127	=127	=127	=127	=127	=127
3C/]V	0r	3%2AV	3c\V	3e/]V	1r
3%2FFZ	.	.	3c\	3%2fZ	.
.	.	3%2A	3c\Z	.	.
1C	.	.	3.A/V	3%2eV	3cc\V
.	.	3%2EZ	.	.	3cc\
.	.	.	6B\	.	.
.	.	.	3c\Z	3e/Z	3cc\Z
=128	=128	=128	=128	=128	=128
0r	3.F\V	3%2AV	3%2dV	3%2fV	3.a/V
.	6G\	.	.	.	6b\
.	3A\Z	3A/Z	3c\Z	3e/Z	3cc\Z
.	3%2DV	3.F/V	3B\V	3%2dV	3%2ddV
.	.	.	3%2AZ	.	.
.	.	6G/	.	.	.
.	[3F\Z	3A/Z	.	3c/Z	[3a/Z
=129	=129	=129	=129	=129	=129
0r	3F\]V	0D	3%2dV	0d	3a/]V
.	3%2BB-iZ	.	.	.	3%2b-Z
.	.	.	3%2d	.	.
.	1F	.	.	.	3%2aV
.	.	.	3%2AZ	.	.
.	.	.	.	.	3a/Z
=130	=130	=130	=130	=130	=130
0r	0r	0r	3%2dV	0r	3%2b-iV
.	.	.	3d\Z	.	3a/Z
.	.	.	3.B\V	.	3%2gV
.	.	.	6c\	.	.
.	.	.	3d\Z	.	3f#i/Z
=131	=131	=131	=131	=131	=131
1GG	0r	1D	0G	1d	0g
2.GG/	.	1G	.	2d/	.
.	.	.	.	2d/	.
4AA/	.	.	.	.	.
=132	=132	=132	=132	=132	=132
2BB/	0r	2G/	0r	2B/	0r
1C	.	2E/	.	2.e/	.
.	.	1F	.	.	.
.	.	.	.	4d/	.
2BB/	.	.	.	2d/	.
=133	=133	=133	=133	=133	=133
0C	1C	0E	1G	0e	1g
.	2.C/	.	1c	.	2g/
.	.	.	.	.	2g/
.	4D\	.	.	.	.
=134	=134	=134	=134	=134	=134
0r	2E\	1r	2c\	0r	2e/
.	1F	.	2A/	.	2.a/
.	.	1G	1B	.	.
.	.	.	.	.	4g/
.	2E\	.	.	.	2g/
=135	=135	=135	=135	=135	=135
2r	0F	2.c\	0A	1r	0a
1F	.	.	.	.	.
.	.	4c\	.	.	.
.	.	2c\	.	1a	.
4E\	.	[2A/	.	.	.
4D\	.	.	.	.	.
=136	=136	=136	=136	=136	=136
2C/	0r	4A/]	1r	2a/	0r
.	.	4G/	.	.	.
2D\	.	2F/	.	2a/	.
1AA	.	1E	1c	1a	.
=137	=137	=137	=137	=137	=137
1r	2r	[0D	2.f\	2f/	1r
.	1B-i	.	.	4d/	.
.	.	.	4f\	4e/	.
[1D	.	.	2f\	4f/	1dd
.	.	.	.	4g/	.
.	4A\	.	[2d\	4a/	.
.	4G\	.	.	4b\	.
=138	=138	=138	=138	=138	=138
2D\]	2F\	0D]	4d\]	2a/	2dd\
.	.	.	4c\	.	.
2GG/	2G\	.	2B\	1g	2dd\
1D	1D	.	1A	.	1dd
.	.	.	.	2f#i/	.
=139	=139	=139	=139	=139	=139
0GG	1r	0r	[0G	1g	2b\
.	.	.	.	.	4g/
.	.	.	.	.	4a/
.	[1G	.	.	2d/	4b\
.	.	.	.	.	4cc\
.	.	.	.	[2g/	4dd\
.	.	.	.	.	4ee\
=140	=140	=140	=140	=140	=140
1r	2G\]	1r	0G]	2g/]	2dd\
.	2C/	.	.	4f/	1cc
.	.	.	.	4e/	.
1GG	1G	1D	.	1d	.
.	.	.	.	.	2b\
=141	=141	=141	=141	=141	=141
1.C	0C	1.E	0r	2.c/	1cc
.	.	.	.	4d/	.
.	.	.	.	4e/	2g/
.	.	.	.	4f/	.
2AA/	.	2C/	.	[2e/	[2cc\
=142	=142	=142	=142	=142	=142
2C/	1r	2E/	1r	2e/]	2cc\]
2D\	.	2F/	.	2.d/	4b\
.	.	.	.	.	4a/
1E	1C	2G/	1G	.	1g
.	.	.	.	4c#i/	.
.	.	2E/	.	2c#i/	.
=143	=143	=143	=143	=143	=143
0D	1.F	0F	1.A	0d	2.f/
.	.	.	.	.	4g/
.	.	.	.	.	4a/
.	.	.	.	.	4b-i\
.	2D\	.	2F/	.	[2a/
=144	=144	=144	=144	=144	=144
0r	2F\	0r	2A/	0r	2a/]
.	2G\	.	2B\	.	2.g/
.	1A	.	2c\	.	.
.	.	.	.	.	4f#i/
.	.	.	2A/	.	2f#i/
=145	=145	=145	=145	=145	=145
1GG	0G	1r	0B	2r	0g
.	.	.	.	2g/	.
2GG/	.	2r	.	2g/	.
2GG/	.	2G/	.	2g/	.
=146	=146	=146	=146	=146	=146
1C	0r	2G/	0r	2e/	0r
.	.	2G/	.	2.g/	.
1BB	.	2G/	.	.	.
.	.	.	.	4f/	.
.	.	2G/	.	4e/	.
.	.	.	.	4d/	.
=147	=147	=147	=147	=147	=147
1AA	1C	2E/	1r	2.c/	2r
.	.	2E/	.	.	2cc\
.	.	.	.	4d/	.
1AA	2C/	1C	2r	2e/	2cc\
.	2C/	.	2c\	[2f/	2cc\
=148	=148	=148	=148	=148	=148
0AA	1F	1r	2c\	2f/]	2a/
.	.	.	2c\	4e/	2.cc\
.	.	.	.	4d/	.
.	1E	1E	2c\	4c/	.
.	.	.	.	4d/	4b\
.	.	.	2c\	4e/	4a/
.	.	.	.	4c/	4g/
=149	=149	=149	=149	=149	=149
2r	1D	2F/	2A/	[0d	2.f/
2.D\	.	1A	2A/	.	.
.	.	.	.	.	4g/
.	1D	.	1F	.	2a/
4C/	.	.	.	.	.
4BB/	.	[2d\	.	.	[2b-i\
4AA/	.	.	.	.	.
=150	=150	=150	=150	=150	=150
1GG	[0Dl	4d\]	1r	0d]	2b-\]
.	.	4c\	.	.	.
.	.	2B\	.	.	4a/
.	.	.	.	.	4g/
1D	.	1A	1A	.	4f#i/
.	.	.	.	.	4g/
.	.	.	.	.	4a/
.	.	.	.	.	4f#i/
=151	=151	=151	=151	=151	=151
[0GGl	0D_	[0G	[0Bl	[0dl	[0g
=152	=152	=152	=152	=152	=152
0GG_	0D_	0G]	0B_	0d_	0g]
=153	=153	=153	=153	=153	=153
0GG]	0D]	0Gl	0B]	0d]	0gl
==	==	==	==	==	==
*-	*-	*-	*-	*-	*-
!!!RDF**kern: l=long note in original notation
!!!RDF**kern: i=editorial accidental
!!!RDF**kern: V=start of tuplet marker
!!!RDF**kern: Z=end of tuplet marker
!!!ENC:	Chris Gage 12-13-2012
!!!END:	2013/07/18/
!!!EED:	Jesse Rodin
!!!EEV:	2013/07/19/
!!!ONB:	Translated from MusicXML and edited on 2013/07/19/ by Craig Sapp
!!muse2ps: T^@{OPR}^u^@{ONM}{. }@{OTL}^C^@{COM}^i2I150v100,100,100,100,100,130Q16c80
